X: 1
T:Gay Gordons, The
C:James Scott Skinner
B:Master Method for Highland Bagpipe (1953)
Z:Nigel Gatherer
M:2/4
R:March
L:1/8
K:A
e|A>B cB/A/|d>e fe/d/|ca cB/A/|cB Be|
A>B cB/A/|d>e fe/d/|ca e/c/d/B/|cA A:|]
c/e/|a>f ed/c/|d>e fe/d/|ca cB/A/|cB Bc/e/|
a>f ed/c/|d>e fe/d/|ca e/c/d/B/|cA A:|]
